X: 121
T: Anna Mae's
T: Reel, G
C: Anna Mae MacEachern
L: 1/8
M: C|
K: G
|: (3DEF| G2FG EGDG| gfga gdBd| efge dBGB| cBAG FADF|
 G2FG EGDG| gfga gdBd| efge dBGB| cAFA G2:| 
|: ef| gfga gdBd| gfga gdBd| a^gab afdf| a^gab afdf| 
gfga gdBd| gfga gdBd| efge dBGB| cAFA G2:| 
D: Stephanie Wills, Tradition Continued, STEPH 1-94
